X: 36579
T: Shady Road To Clamper, The
R: polka
M: 2/4
K: Gmajor
|:G>A Bd|gd f/e/d|G>A Bd|eB d2|
GA Bd|gd ed|eg/e/ de|DE G2:|
|:B/c/B/A/ BA|Bd ed|B>c Bd|B/A/G A2|
B>c BA|Bd ed|eg/e/ de|DE G2:|

